!!!OTL: KLOPFER KLOPFER RINGELCHEN
!!!ARE: Europa, Mitteleuropa, Deutschland, Niederrhein
!!!SCT: E1910
!!!YEM: Copyright 1995, estate of Helmut Schaffrath.
**kern
*ICvox
*Ivox
*M2/4
*k[b-]
*F:
=1
{8f
8f
8g
8g
=2
8a
8g
8f}
{8c
=3
8f
8f
8g
8g
=4
8a
8g
8f
8r}
=5
{8g
8g
8f
8a
=6
8g
8g
8f}
{8c
=7
8f
8f
8g
8g
=8
8a
8g
8f}
{8c
=9
8f
8f
8g
8g
=10
4a
8f
8r}
=11
{8f
8f
8g
8g
=12
8a
8g
4f}
=13
{8f
8f
8g
8g
=14
8a
8g
4f}
=15
{8g
8g
4f
=16
8g
8g
4f}
=17
{8cc
8f
8f
8f
=18
8f
8f
4f}
==
!!!AGN: Kinder - Lied, Tanz, Reigen
!!!ONB: ESAC (Essen Associative Code) Database: ERK3
!!!AMT: simple duple
!!!AIN: vox
!!!EED: Helmut Schaffrath
!!!EEV: 1.0
*-
